images/3233604.svg

<?xml version="1.0" encoding="UTF-8"?>
<svg xmlns="http://www.w3.org/2000/svg" xmlns:xlink="http://www.w3.org/1999/xlink" width="300pt" height="300pt" viewBox="0 0 300 300" version="1.1">
<defs>
<g>
<symbol overflow="visible" id="glyph0-0">
<path style="stroke:none;" d="M 0.796875 2.828125 L 0.796875 -11.28125 L 8.796875 -11.28125 L 8.796875 2.828125 Z M 1.703125 1.9375 L 7.90625 1.9375 L 7.90625 -10.390625 L 1.703125 -10.390625 Z M 1.703125 1.9375 "/>
</symbol>
<symbol overflow="visible" id="glyph0-1">
<path style="stroke:none;" d="M 1.578125 -11.671875 L 3.703125 -11.671875 L 8.875 -1.90625 L 8.875 -11.671875 L 10.40625 -11.671875 L 10.40625 0 L 8.28125 0 L 3.109375 -9.765625 L 3.109375 0 L 1.578125 0 Z M 1.578125 -11.671875 "/>
</symbol>
<symbol overflow="visible" id="glyph0-2">
<path style="stroke:none;" d="M 6.3125 -10.59375 C 5.164062 -10.59375 4.253906 -10.164062 3.578125 -9.3125 C 2.898438 -8.457031 2.5625 -7.296875 2.5625 -5.828125 C 2.5625 -4.359375 2.898438 -3.195312 3.578125 -2.34375 C 4.253906 -1.488281 5.164062 -1.0625 6.3125 -1.0625 C 7.457031 -1.0625 8.363281 -1.488281 9.03125 -2.34375 C 9.695312 -3.195312 10.03125 -4.359375 10.03125 -5.828125 C 10.03125 -7.296875 9.695312 -8.457031 9.03125 -9.3125 C 8.363281 -10.164062 7.457031 -10.59375 6.3125 -10.59375 Z M 6.3125 -11.875 C 7.945312 -11.875 9.253906 -11.328125 10.234375 -10.234375 C 11.210938 -9.140625 11.703125 -7.671875 11.703125 -5.828125 C 11.703125 -3.984375 11.210938 -2.507812 10.234375 -1.40625 C 9.253906 -0.3125 7.945312 0.234375 6.3125 0.234375 C 4.664062 0.234375 3.351562 -0.3125 2.375 -1.40625 C 1.394531 -2.507812 0.90625 -3.984375 0.90625 -5.828125 C 0.90625 -7.671875 1.394531 -9.140625 2.375 -10.234375 C 3.351562 -11.328125 4.664062 -11.875 6.3125 -11.875 Z M 6.3125 -11.875 "/>
</symbol>
</g>
</defs>
<g id="surface44357">
<rect x="0" y="0" width="300" height="300" style="fill:rgb(100%,100%,100%);fill-opacity:1;stroke:none;"/>
<path style="fill:none;stroke-width:1.2;stroke-linecap:butt;stroke-linejoin:miter;stroke:rgb(0%,0%,0%);stroke-opacity:1;stroke-miterlimit:10;" d="M 124.632812 217.167969 L 91.277344 198.445312 "/>
<path style="fill:none;stroke-width:1.2;stroke-linecap:butt;stroke-linejoin:miter;stroke:rgb(0%,0%,0%);stroke-opacity:1;stroke-miterlimit:10;" d="M 91.277344 198.445312 L 86.820312 160.457031 "/>
<path style="fill:none;stroke-width:1.2;stroke-linecap:butt;stroke-linejoin:miter;stroke:rgb(0%,0%,0%);stroke-opacity:1;stroke-miterlimit:10;" d="M 81.894531 195.695312 L 78.328125 165.304688 "/>
<path style="fill:none;stroke-width:1.2;stroke-linecap:butt;stroke-linejoin:miter;stroke:rgb(100%,0%,0%);stroke-opacity:1;stroke-miterlimit:10;" d="M 56.523438 214.421875 L 73.902344 206.433594 "/>
<path style="fill:none;stroke-width:1.2;stroke-linecap:butt;stroke-linejoin:miter;stroke:rgb(0%,0%,0%);stroke-opacity:1;stroke-miterlimit:10;" d="M 73.902344 206.433594 L 91.277344 198.445312 "/>
<path style="fill:none;stroke-width:1.2;stroke-linecap:butt;stroke-linejoin:miter;stroke:rgb(0%,0%,0%);stroke-opacity:1;stroke-miterlimit:10;" d="M 86.820312 160.457031 L 49.3125 152.957031 "/>
<path style="fill:none;stroke-width:1.2;stroke-linecap:butt;stroke-linejoin:miter;stroke:rgb(0%,0%,0%);stroke-opacity:1;stroke-miterlimit:10;" d="M 86.820312 160.457031 L 114.933594 134.519531 "/>
<path style="fill:none;stroke-width:1.2;stroke-linecap:butt;stroke-linejoin:miter;stroke:rgb(0%,0%,0%);stroke-opacity:1;stroke-miterlimit:10;" d="M 49.3125 152.957031 L 39.949219 169.632812 "/>
<path style="fill:none;stroke-width:1.2;stroke-linecap:butt;stroke-linejoin:miter;stroke:rgb(0%,0%,100%);stroke-opacity:1;stroke-miterlimit:10;" d="M 39.949219 169.632812 L 30.589844 186.308594 "/>
<path style="fill:none;stroke-width:1.2;stroke-linecap:butt;stroke-linejoin:miter;stroke:rgb(0%,0%,0%);stroke-opacity:1;stroke-miterlimit:10;" d="M 55.289062 160.695312 L 47.800781 174.039062 "/>
<path style="fill:none;stroke-width:1.2;stroke-linecap:butt;stroke-linejoin:miter;stroke:rgb(0%,0%,100%);stroke-opacity:1;stroke-miterlimit:10;" d="M 47.800781 174.039062 L 40.308594 187.378906 "/>
<path style="fill:none;stroke-width:1.2;stroke-linecap:butt;stroke-linejoin:miter;stroke:rgb(0%,0%,0%);stroke-opacity:1;stroke-miterlimit:10;" d="M 49.3125 152.957031 L 33.332031 118.203125 "/>
<path style="fill:none;stroke-width:1.2;stroke-linecap:butt;stroke-linejoin:miter;stroke:rgb(0%,0%,100%);stroke-opacity:1;stroke-miterlimit:10;" d="M 30.589844 186.308594 L 43.558594 200.367188 "/>
<path style="fill:none;stroke-width:1.2;stroke-linecap:butt;stroke-linejoin:miter;stroke:rgb(100%,0%,0%);stroke-opacity:1;stroke-miterlimit:10;" d="M 43.558594 200.367188 L 56.523438 214.421875 "/>
<path style=" stroke:none;fill-rule:nonzero;fill:rgb(100%,100%,100%);fill-opacity:1;" d="M 24.589844 176.808594 L 36.589844 176.808594 L 36.589844 195.808594 L 24.589844 195.808594 Z M 24.589844 176.808594 "/>
<g style="fill:rgb(0%,0%,100%);fill-opacity:1;">
  <use xlink:href="#glyph0-1" x="24.589844" y="191.660156"/>
</g>
<path style=" stroke:none;fill-rule:nonzero;fill:rgb(100%,100%,100%);fill-opacity:1;" d="M 50.523438 204.921875 L 63.523438 204.921875 L 63.523438 223.921875 L 50.523438 223.921875 Z M 50.523438 204.921875 "/>
<g style="fill:rgb(100%,0%,0%);fill-opacity:1;">
  <use xlink:href="#glyph0-2" x="50.523438" y="219.773438"/>
</g>
<path style="fill:none;stroke-width:1.2;stroke-linecap:butt;stroke-linejoin:miter;stroke:rgb(0%,0%,0%);stroke-opacity:1;stroke-miterlimit:10;" d="M 114.933594 134.519531 L 151.453125 145.898438 "/>
<path style="fill:none;stroke-width:1.2;stroke-linecap:butt;stroke-linejoin:miter;stroke:rgb(0%,0%,0%);stroke-opacity:1;stroke-miterlimit:10;" d="M 121.261719 127.066406 L 150.476562 136.167969 "/>
<path style="fill:none;stroke-width:1.2;stroke-linecap:butt;stroke-linejoin:miter;stroke:rgb(0%,0%,0%);stroke-opacity:1;stroke-miterlimit:10;" d="M 106.53125 97.203125 L 114.933594 134.519531 "/>
<path style="fill:none;stroke-width:1.2;stroke-linecap:butt;stroke-linejoin:miter;stroke:rgb(0%,0%,0%);stroke-opacity:1;stroke-miterlimit:10;" d="M 151.453125 145.898438 L 179.566406 119.964844 "/>
<path style="fill:none;stroke-width:1.2;stroke-linecap:butt;stroke-linejoin:miter;stroke:rgb(0%,0%,0%);stroke-opacity:1;stroke-miterlimit:10;" d="M 179.566406 119.964844 L 171.160156 82.648438 "/>
<path style="fill:none;stroke-width:1.2;stroke-linecap:butt;stroke-linejoin:miter;stroke:rgb(0%,0%,0%);stroke-opacity:1;stroke-miterlimit:10;" d="M 187.503906 114.253906 L 180.78125 84.402344 "/>
<path style="fill:none;stroke-width:1.2;stroke-linecap:butt;stroke-linejoin:miter;stroke:rgb(0%,0%,0%);stroke-opacity:1;stroke-miterlimit:10;" d="M 216.085938 131.34375 L 179.566406 119.964844 "/>
<path style="fill:none;stroke-width:1.2;stroke-linecap:butt;stroke-linejoin:miter;stroke:rgb(0%,0%,0%);stroke-opacity:1;stroke-miterlimit:10;" d="M 171.160156 82.648438 L 134.644531 71.269531 "/>
<path style="fill:none;stroke-width:1.2;stroke-linecap:butt;stroke-linejoin:miter;stroke:rgb(0%,0%,0%);stroke-opacity:1;stroke-miterlimit:10;" d="M 171.160156 82.648438 L 185.21875 69.679688 "/>
<path style="fill:none;stroke-width:1.2;stroke-linecap:butt;stroke-linejoin:miter;stroke:rgb(0%,0%,100%);stroke-opacity:1;stroke-miterlimit:10;" d="M 185.21875 69.679688 L 199.277344 56.710938 "/>
<path style="fill:none;stroke-width:1.2;stroke-linecap:butt;stroke-linejoin:miter;stroke:rgb(0%,0%,0%);stroke-opacity:1;stroke-miterlimit:10;" d="M 134.644531 71.269531 L 106.53125 97.203125 "/>
<path style="fill:none;stroke-width:1.2;stroke-linecap:butt;stroke-linejoin:miter;stroke:rgb(0%,0%,0%);stroke-opacity:1;stroke-miterlimit:10;" d="M 137.933594 80.476562 L 115.445312 101.226562 "/>
<path style="fill:none;stroke-width:1.2;stroke-linecap:butt;stroke-linejoin:miter;stroke:rgb(0%,0%,100%);stroke-opacity:1;stroke-miterlimit:10;" d="M 199.277344 56.710938 L 217.535156 62.402344 "/>
<path style="fill:none;stroke-width:1.2;stroke-linecap:butt;stroke-linejoin:miter;stroke:rgb(0%,0%,0%);stroke-opacity:1;stroke-miterlimit:10;" d="M 217.535156 62.402344 L 235.792969 68.089844 "/>
<path style="fill:none;stroke-width:1.2;stroke-linecap:butt;stroke-linejoin:miter;stroke:rgb(0%,0%,100%);stroke-opacity:1;stroke-miterlimit:10;" d="M 200.25 66.441406 L 214.855469 70.992188 "/>
<path style="fill:none;stroke-width:1.2;stroke-linecap:butt;stroke-linejoin:miter;stroke:rgb(0%,0%,0%);stroke-opacity:1;stroke-miterlimit:10;" d="M 214.855469 70.992188 L 229.464844 75.546875 "/>
<path style=" stroke:none;fill-rule:nonzero;fill:rgb(100%,100%,100%);fill-opacity:1;" d="M 193.277344 47.210938 L 205.277344 47.210938 L 205.277344 66.210938 L 193.277344 66.210938 Z M 193.277344 47.210938 "/>
<g style="fill:rgb(0%,0%,100%);fill-opacity:1;">
  <use xlink:href="#glyph0-1" x="193.277344" y="62.0625"/>
</g>
<path style="fill:none;stroke-width:1.2;stroke-linecap:butt;stroke-linejoin:miter;stroke:rgb(0%,0%,0%);stroke-opacity:1;stroke-miterlimit:10;" d="M 235.792969 68.089844 L 239.996094 86.75 "/>
<path style="fill:none;stroke-width:1.2;stroke-linecap:butt;stroke-linejoin:miter;stroke:rgb(0%,0%,100%);stroke-opacity:1;stroke-miterlimit:10;" d="M 239.996094 86.75 L 244.199219 105.40625 "/>
<path style="fill:none;stroke-width:1.2;stroke-linecap:butt;stroke-linejoin:miter;stroke:rgb(0%,0%,100%);stroke-opacity:1;stroke-miterlimit:10;" d="M 244.199219 105.40625 L 230.140625 118.375 "/>
<path style="fill:none;stroke-width:1.2;stroke-linecap:butt;stroke-linejoin:miter;stroke:rgb(0%,0%,0%);stroke-opacity:1;stroke-miterlimit:10;" d="M 230.140625 118.375 L 216.085938 131.34375 "/>
<path style="fill:none;stroke-width:1.2;stroke-linecap:butt;stroke-linejoin:miter;stroke:rgb(0%,0%,100%);stroke-opacity:1;stroke-miterlimit:10;" d="M 235.285156 101.386719 L 224.039062 111.757812 "/>
<path style="fill:none;stroke-width:1.2;stroke-linecap:butt;stroke-linejoin:miter;stroke:rgb(0%,0%,0%);stroke-opacity:1;stroke-miterlimit:10;" d="M 224.039062 111.757812 L 212.792969 122.132812 "/>
<path style=" stroke:none;fill-rule:nonzero;fill:rgb(100%,100%,100%);fill-opacity:1;" d="M 238.199219 95.90625 L 250.199219 95.90625 L 250.199219 114.90625 L 238.199219 114.90625 Z M 238.199219 95.90625 "/>
<g style="fill:rgb(0%,0%,100%);fill-opacity:1;">
  <use xlink:href="#glyph0-1" x="238.199219" y="110.757812"/>
</g>
<path style="fill:none;stroke-width:1.2;stroke-linecap:butt;stroke-linejoin:miter;stroke:rgb(0%,0%,0%);stroke-opacity:1;stroke-miterlimit:10;" d="M 216.085938 131.34375 L 220.285156 150 "/>
<path style="fill:none;stroke-width:1.2;stroke-linecap:butt;stroke-linejoin:miter;stroke:rgb(0%,0%,100%);stroke-opacity:1;stroke-miterlimit:10;" d="M 220.285156 150 L 224.488281 168.65625 "/>
<path style="fill:none;stroke-width:1.2;stroke-linecap:butt;stroke-linejoin:miter;stroke:rgb(0%,0%,100%);stroke-opacity:1;stroke-miterlimit:10;" d="M 224.488281 168.65625 L 210.429688 181.625 "/>
<path style="fill:none;stroke-width:1.2;stroke-linecap:butt;stroke-linejoin:miter;stroke:rgb(0%,0%,0%);stroke-opacity:1;stroke-miterlimit:10;" d="M 210.429688 181.625 L 196.375 194.59375 "/>
<path style="fill:none;stroke-width:1.2;stroke-linecap:butt;stroke-linejoin:miter;stroke:rgb(0%,0%,0%);stroke-opacity:1;stroke-miterlimit:10;" d="M 261.007812 180.035156 L 242.746094 174.347656 "/>
<path style="fill:none;stroke-width:1.2;stroke-linecap:butt;stroke-linejoin:miter;stroke:rgb(0%,0%,100%);stroke-opacity:1;stroke-miterlimit:10;" d="M 242.746094 174.347656 L 224.488281 168.65625 "/>
<path style=" stroke:none;fill-rule:nonzero;fill:rgb(100%,100%,100%);fill-opacity:1;" d="M 218.488281 159.15625 L 230.488281 159.15625 L 230.488281 178.15625 L 218.488281 178.15625 Z M 218.488281 159.15625 "/>
<g style="fill:rgb(0%,0%,100%);fill-opacity:1;">
  <use xlink:href="#glyph0-1" x="218.488281" y="174.007812"/>
</g>
<path style="fill:none;stroke-width:1.2;stroke-linecap:butt;stroke-linejoin:miter;stroke:rgb(0%,0%,0%);stroke-opacity:1;stroke-miterlimit:10;" d="M 196.375 194.59375 L 204.777344 231.910156 "/>
<path style="fill:none;stroke-width:1.2;stroke-linecap:butt;stroke-linejoin:miter;stroke:rgb(0%,0%,0%);stroke-opacity:1;stroke-miterlimit:10;" d="M 204.777344 231.910156 L 223.039062 237.597656 "/>
<path style="fill:none;stroke-width:1.2;stroke-linecap:butt;stroke-linejoin:miter;stroke:rgb(100%,0%,0%);stroke-opacity:1;stroke-miterlimit:10;" d="M 223.039062 237.597656 L 241.296875 243.289062 "/>
<path style="fill:none;stroke-width:1.2;stroke-linecap:butt;stroke-linejoin:miter;stroke:rgb(100%,0%,0%);stroke-opacity:1;stroke-miterlimit:10;" d="M 241.296875 243.289062 L 255.355469 230.320312 "/>
<path style="fill:none;stroke-width:1.2;stroke-linecap:butt;stroke-linejoin:miter;stroke:rgb(0%,0%,0%);stroke-opacity:1;stroke-miterlimit:10;" d="M 255.355469 230.320312 L 269.410156 217.351562 "/>
<path style=" stroke:none;fill-rule:nonzero;fill:rgb(100%,100%,100%);fill-opacity:1;" d="M 235.296875 233.789062 L 248.296875 233.789062 L 248.296875 252.789062 L 235.296875 252.789062 Z M 235.296875 233.789062 "/>
<g style="fill:rgb(100%,0%,0%);fill-opacity:1;">
  <use xlink:href="#glyph0-2" x="235.296875" y="248.640625"/>
</g>
<path style="fill:none;stroke-width:1.2;stroke-linecap:butt;stroke-linejoin:miter;stroke:rgb(0%,0%,0%);stroke-opacity:1;stroke-miterlimit:10;" d="M 269.410156 217.351562 L 261.007812 180.035156 "/>
</g>
</svg>

<svg xmlns="http://www.w3.org/2000/svg" xmlns:xlink="http://www.w3.org/1999/xlink" width="300pt" height="300pt" viewBox="0 0 300 300"><defs><symbol overflow="visible"><path d="M.797 2.828v-14.11h8V2.83zm.906-.89h6.203v-12.33H1.703zm0 0"/></symbol><symbol overflow="visible" id="a"><path d="M1.578-11.672h2.125l5.172 9.766v-9.766h1.53V0H8.282L3.11-9.766V0H1.577zm0 0"/></symbol><symbol overflow="visible" id="b"><path d="M6.313-10.594c-1.15 0-2.06.43-2.735 1.28-.68.857-1.015 2.017-1.015 3.486 0 1.47.335 2.633 1.015 3.484.676.856 1.586 1.28 2.735 1.28 1.144.002 2.05-.424 2.718-1.28.665-.85 1-2.015 1-3.484 0-1.47-.335-2.63-1-3.484-.667-.852-1.573-1.282-2.717-1.282zm0-1.28c1.632 0 2.94.546 3.92 1.64.978 1.093 1.47 2.562 1.47 4.406 0 1.844-.492 3.32-1.47 4.422-.98 1.093-2.288 1.64-3.92 1.64-1.65 0-2.96-.546-3.938-1.64-.98-1.102-1.47-2.578-1.47-4.422 0-1.844.49-3.313 1.47-4.406.977-1.094 2.29-1.64 3.938-1.64zm0 0"/></symbol></defs><g><path fill="#fff" d="M0 0h300v300H0z"/><path d="M124.633 217.168l-33.356-18.723M91.277 198.445l-4.457-37.988M81.895 195.695l-3.567-30.39" stroke-width="1.2" stroke="#000" stroke-miterlimit="10" fill="none"/><path d="M56.523 214.422l17.38-7.988" stroke-width="1.2" stroke="#f00" stroke-miterlimit="10" fill="none"/><path d="M73.902 206.434l17.375-7.99M86.82 160.457l-37.507-7.5M86.82 160.457l28.114-25.937M49.313 152.957l-9.364 16.676" stroke-width="1.2" stroke="#000" stroke-miterlimit="10" fill="none"/><path d="M39.95 169.633l-9.36 16.676" stroke-width="1.2" stroke="#00f" stroke-miterlimit="10" fill="none"/><path d="M55.29 160.695L47.8 174.04" stroke-width="1.2" stroke="#000" stroke-miterlimit="10" fill="none"/><path d="M47.8 174.04l-7.49 13.34" stroke-width="1.2" stroke="#00f" stroke-miterlimit="10" fill="none"/><path d="M49.313 152.957l-15.98-34.754" stroke-width="1.2" stroke="#000" stroke-miterlimit="10" fill="none"/><path d="M30.59 186.31l12.97 14.057" stroke-width="1.2" stroke="#00f" stroke-miterlimit="10" fill="none"/><path d="M43.56 200.367l12.963 14.055" stroke-width="1.2" stroke="#f00" stroke-miterlimit="10" fill="none"/><path d="M24.59 176.81h12v19h-12zm0 0" fill="#fff"/><use xlink:href="#a" x="24.59" y="191.66" fill="#00f"/><path d="M50.523 204.922h13v19h-13zm0 0" fill="#fff"/><use xlink:href="#b" x="50.523" y="219.773" fill="#f00"/><path d="M114.934 134.52l36.52 11.378M121.262 127.066l29.215 9.102M106.53 97.203l8.404 37.317M151.453 145.898l28.113-25.933M179.566 119.965l-8.406-37.317M187.504 114.254l-6.723-29.852M216.086 131.344l-36.52-11.38M171.16 82.648L134.645 71.27M171.16 82.648l14.06-12.968" stroke-width="1.2" stroke="#000" stroke-miterlimit="10" fill="none"/><path d="M185.22 69.68l14.057-12.97" stroke-width="1.2" stroke="#00f" stroke-miterlimit="10" fill="none"/><path d="M134.645 71.27L106.53 97.203M137.934 80.477l-22.49 20.75" stroke-width="1.2" stroke="#000" stroke-miterlimit="10" fill="none"/><path d="M199.277 56.71l18.258 5.692" stroke-width="1.2" stroke="#00f" stroke-miterlimit="10" fill="none"/><path d="M217.535 62.402l18.258 5.688" stroke-width="1.2" stroke="#000" stroke-miterlimit="10" fill="none"/><path d="M200.25 66.44l14.605 4.552" stroke-width="1.2" stroke="#00f" stroke-miterlimit="10" fill="none"/><path d="M214.855 70.992l14.61 4.555" stroke-width="1.2" stroke="#000" stroke-miterlimit="10" fill="none"/><path d="M193.277 47.21h12v19h-12zm0 0" fill="#fff"/><use xlink:href="#a" x="193.277" y="62.063" fill="#00f"/><path d="M235.793 68.09l4.203 18.66" stroke-width="1.2" stroke="#000" stroke-miterlimit="10" fill="none"/><path d="M239.996 86.75l4.203 18.656M244.2 105.406l-14.06 12.97" stroke-width="1.2" stroke="#00f" stroke-miterlimit="10" fill="none"/><path d="M230.14 118.375l-14.054 12.97" stroke-width="1.2" stroke="#000" stroke-miterlimit="10" fill="none"/><path d="M235.285 101.387l-11.246 10.37" stroke-width="1.2" stroke="#00f" stroke-miterlimit="10" fill="none"/><path d="M224.04 111.758l-11.247 10.375" stroke-width="1.2" stroke="#000" stroke-miterlimit="10" fill="none"/><path d="M238.2 95.906h12v19h-12zm0 0" fill="#fff"/><use xlink:href="#a" x="238.199" y="110.758" fill="#00f"/><path d="M216.086 131.344l4.2 18.656" stroke-width="1.2" stroke="#000" stroke-miterlimit="10" fill="none"/><path d="M220.285 150l4.203 18.656M224.488 168.656l-14.058 12.97" stroke-width="1.2" stroke="#00f" stroke-miterlimit="10" fill="none"/><path d="M210.43 181.625l-14.055 12.97M261.008 180.035l-18.262-5.687" stroke-width="1.2" stroke="#000" stroke-miterlimit="10" fill="none"/><path d="M242.746 174.348l-18.258-5.692" stroke-width="1.2" stroke="#00f" stroke-miterlimit="10" fill="none"/><path d="M218.488 159.156h12v19h-12zm0 0" fill="#fff"/><use xlink:href="#a" x="218.488" y="174.008" fill="#00f"/><path d="M196.375 194.594l8.402 37.316M204.777 231.91l18.262 5.688" stroke-width="1.2" stroke="#000" stroke-miterlimit="10" fill="none"/><path d="M223.04 237.598l18.257 5.69M241.297 243.29l14.058-12.97" stroke-width="1.2" stroke="#f00" stroke-miterlimit="10" fill="none"/><path d="M255.355 230.32l14.055-12.968" stroke-width="1.2" stroke="#000" stroke-miterlimit="10" fill="none"/><path d="M235.297 233.79h13v19h-13zm0 0" fill="#fff"/><use xlink:href="#b" x="235.297" y="248.641" fill="#f00"/><path d="M269.41 217.352l-8.402-37.317" stroke-width="1.2" stroke="#000" stroke-miterlimit="10" fill="none"/></g></svg>
